X:218
T:Royal Irish Quadrilles No. 3. Le4.218, The
M:6/8
L:1/8
Q:3/8=90
B:L.Leadley MS#4 c1850
Z:Village Music Project 2016 Steve Mansfield
K:D
{ABc} d2d d2d | f>ed BcA | {ABc} d2d d>cd | e2f gfe |
{ABc} d2d d2d | f2d a2f | e2e cBc | e2f gfe H ||
{defg} a2a a2a | f>ed g2f | a2a bag | gef gfe |
{defg} a2a a2g | f>ed a>gf | e2 =c' c'bc' | e2f gfe !segno! ||
dz f bz f | d'z c' d'z b | ^az b az =a | fz g fz e |
dz f c'z f | d'z c' d'z b | ^gz b az b | =az b ^az f !D.C.! ||
!coda! [Gd]zz [Ed][Ed][Ed] | [F2d2]z [Af]2z | H[DFd]4 |]

